packages/icons/src/components/Logo/assets/light/debian.svg

<svg width="20" height="20" viewBox="0 0 20 20" fill="none" xmlns="http://www.w3.org/2000/svg">
<path d="M9.84674 0.142578C9.68777 0.231468 9.52993 0.300708 9.38092 0.405273C9.98538 0.261074 9.95668 0.464256 10.5743 0.382812C10.358 0.414314 10.0954 0.499765 10.1363 0.532715C10.8269 0.612752 10.9328 0.319408 11.5718 0.532227L11.5313 0.34375C12.4188 0.664213 12.6049 0.609545 13.5694 1.12109C13.9082 1.13743 13.942 0.912919 14.4537 1.12109C14.5434 1.27894 14.4333 1.30832 15.0611 1.68213C15.1312 1.65428 14.9363 1.47641 14.7818 1.33496C16.0448 2.01029 17.4178 3.44958 17.8365 4.98975C17.4447 4.26739 17.7958 5.35837 17.6612 5.30176C17.8358 5.77291 17.9789 6.26001 18.0674 6.7627C17.9514 6.35027 17.6987 5.35467 17.2554 4.7124C17.2193 5.12697 16.6841 4.42655 16.9766 5.33887C17.1995 5.6619 17.0217 5.01136 17.2964 5.58545C17.3007 5.85836 17.4049 6.12966 17.4654 6.48535C17.3714 6.4693 17.2557 6.09223 17.1866 6.19727C17.2819 6.64435 17.4388 6.87756 17.4986 6.91211C17.468 6.98698 17.3887 6.84268 17.3834 7.14697C17.4199 7.84669 17.5795 7.55217 17.6548 7.58496C17.5785 7.92964 17.2701 8.33562 17.4224 8.92871C17.3787 8.74914 17.2935 8.56813 17.2286 8.39795C17.1685 8.90428 17.3403 9.00299 17.1065 9.6167C17.2751 9.06348 17.257 8.56432 17.0982 8.80469C17.1684 9.59097 16.4761 10.1947 16.5508 10.6919L16.3497 10.4146C15.8043 11.2052 16.3368 10.8502 15.9654 11.4492C16.1015 11.2139 15.8941 11.3519 16.0714 11.0854C15.9536 11.0924 15.5465 11.5862 15.1739 11.8765C13.7087 13.051 11.9595 13.2043 10.2662 12.5718C10.2646 12.5731 10.2638 12.5751 10.2628 12.5767C10.2737 12.536 10.2629 12.492 10.1451 12.4126C8.70975 11.3125 7.86131 10.3774 8.15582 8.21289C8.37462 8.04745 8.43295 7.1449 8.93512 6.82861C9.24125 6.15217 10.1587 5.52867 11.1392 5.51318C12.1401 5.45808 12.9849 6.04724 13.4092 6.60303C12.6367 5.88314 11.3724 5.66445 10.294 6.19824C9.19141 6.69413 8.53758 7.90849 8.63287 9.11768C8.67375 9.05763 8.70983 9.09456 8.72955 8.9458C8.69599 11.2959 11.2625 13.0181 13.1099 12.1489L13.1319 12.1978C13.8809 11.9934 13.7842 11.8246 14.274 11.4883C14.2358 11.5672 13.9441 11.7685 14.1177 11.7725C14.356 11.7092 15.1005 11.0167 15.4664 10.6914C15.6342 10.3294 15.3775 10.4957 15.6119 10.0405L15.898 9.89746C16.0572 9.43716 16.2337 9.17701 16.2139 8.64111L16.0464 8.99365C16.2924 8.24881 16.1505 7.43796 16.1851 6.73682L16.1168 6.71826C16.0566 4.95435 14.532 3.07955 13.1749 2.44531C12.0053 1.90499 10.2046 1.81228 9.37262 2.21924C9.48731 2.11791 9.94325 2.0752 9.80621 1.99707C8.50372 2.12653 8.79427 2.4515 7.79596 2.70654C7.5221 2.971 8.59524 2.49457 8.01764 2.8374C7.48217 2.98507 7.23247 2.74388 6.43903 3.56494C6.50965 3.67927 6.94276 3.22744 6.5816 3.68115C5.83582 3.58857 4.22527 5.38748 3.88336 5.98389L4.06207 6.01465C3.76849 6.75004 3.3827 7.21912 3.33014 7.65967C3.25433 8.74314 2.87603 10.7187 3.40143 11.3262L3.35065 11.833C3.42275 11.9769 3.47684 12.1238 3.56647 12.2588L3.44977 12.2681C4.00245 14.0113 4.04328 12.3007 4.77301 14.1113C4.66716 14.0757 4.55998 14.0368 4.40582 13.8286C4.38765 13.9876 4.63066 14.4639 4.9195 14.8354L4.79742 14.9751C4.95824 15.2672 5.10626 15.3316 5.21783 15.4336C4.6174 15.1059 5.77479 16.5133 5.87946 16.6929L5.97174 16.5288C5.95855 16.765 6.14103 17.07 6.48395 17.4932L6.76959 17.4819C6.88725 17.7144 7.31723 18.1343 7.57819 18.1543L7.40485 18.3809C8.0599 18.5883 7.72321 18.656 8.52838 18.9409L8.36578 18.6538C8.77628 19.0101 8.90335 19.3218 9.48297 19.5947C10.2864 19.8748 10.393 19.7642 11.2178 20C10.5187 19.9797 9.69679 19.9872 9.1441 19.7896C5.37335 18.7683 1.92365 14.3449 2.17584 9.78906C2.11777 8.86687 2.26772 7.71445 2.11432 7.48438C2.3299 6.78248 2.57925 5.92626 3.0816 4.90771C3.0455 4.83996 3.1643 5.1071 3.41949 4.67236C3.57441 4.33211 3.70076 3.95713 3.89606 3.62646L3.99664 3.60303C4.09734 3.01958 5.35808 2.12485 5.73346 1.67432L5.75934 1.84619C6.57833 1.0783 8.03767 0.563396 8.85944 0.196777C8.64367 0.435599 9.34291 0.173192 9.84674 0.142578Z" fill="#A80030"/>
<path d="M8.40289 11.3662C8.57849 11.4049 9.17901 12.3414 9.62848 12.4937C9.36274 12.2807 9.15687 12.0098 8.96637 11.731C9.32543 12.1437 9.76241 12.4808 10.2393 12.7041C10.2262 12.6543 10.2469 12.621 10.2589 12.5879C10.2553 12.6684 10.5888 12.9252 10.8394 13.0542C11.4845 13.2926 12.2141 13.302 12.7881 13.2808C11.5474 13.7997 9.1781 12.7539 8.40289 11.3662Z" fill="#A80030"/>
<path d="M10.2589 12.5879C10.259 12.5835 10.2604 12.58 10.2628 12.5767C10.2617 12.5805 10.2602 12.5841 10.2589 12.5879Z" fill="#A80030"/>
<path d="M7.98541 11.0215C8.25891 11.5495 8.40739 11.711 8.60748 12.1016C8.32938 11.8703 8.15634 11.5497 7.93854 11.2539L7.98541 11.0215Z" fill="#A80030"/>
<path d="M8.2403 10.5674C8.31664 10.7203 8.3848 10.874 8.50006 11.0015L8.60211 11.3018C8.46289 11.067 8.31332 10.8361 8.2403 10.5674Z" fill="#A80030"/>
<path d="M17.6109 9.021C17.5224 9.70112 17.3113 10.3726 16.9849 10.9863C17.2804 10.4047 17.4733 9.7771 17.5626 9.14307L17.6109 9.021Z" fill="#A80030"/>
<path d="M12.4224 10.5244C12.3258 10.6162 12.2172 10.7104 12.0977 10.8037C11.6651 10.7371 11.2712 10.571 11.6026 10.5664C11.8788 10.5917 12.153 10.5904 12.4224 10.5244Z" fill="#A80030"/>
<path d="M13.773 9.24414C13.7223 9.55247 13.5782 9.85067 13.3809 10.123C13.4048 9.8892 12.8307 10.2244 13.4966 9.38623C13.4387 9.62247 12.8777 10.244 13.4971 9.854C13.6094 9.65378 13.7288 9.46391 13.773 9.24414Z" fill="#A80030"/>
<path d="M13.8672 8.23438C13.9202 8.00666 14.0777 7.81833 14.0377 8.41504C13.9779 8.65491 13.929 8.26645 13.8672 8.23438Z" fill="#A80030"/>
<path d="M2.17731 5.7998C2.13767 5.98418 2.11897 6.17558 2.0152 6.49414C2.04535 6.24479 1.89054 6.16643 2.17731 5.7998Z" fill="#A80030"/>
<path d="M2.54498 4.28223C2.54187 4.47988 2.87732 4.08632 2.6358 4.63037C2.18533 4.94539 2.59649 4.76006 2.54498 4.28223Z" fill="#A80030"/>
<path d="M10.6905 0.371582L10.5743 0.382812L10.6993 0.356445L10.6905 0.371582Z" fill="#A80030"/>
<path d="M10.3458 0.257812C10.9363 0.274591 10.8926 0.314039 10.6993 0.356445C10.728 0.314214 10.5226 0.289532 10.3458 0.257812Z" fill="#A80030"/>
<path d="M11.1998 0C10.9621 0.0540184 10.6352 0.0170606 10.4112 0.0991211L10.2774 0.0805664C10.5818 0.0413115 10.89 0.0259932 11.1998 0Z" fill="#A80030"/>
</svg>

<svg xmlns="http://www.w3.org/2000/svg" width="20" height="20" fill="none" viewBox="0 0 20 20">
    <path fill="#a80030" d="M9.847.143C9.687.23 9.53.3 9.38.405c.604-.144.576.06 1.193-.022-.216.031-.479.117-.438.15.69.08.797-.214 1.436 0l-.04-.19c.887.321 1.073.267 2.037.778.34.016.373-.208.885 0 .09.158-.02.187.607.561.07-.028-.125-.206-.28-.347 1.264.675 2.637 2.115 3.056 3.655-.392-.723-.041.368-.176.312.175.47.318.958.406 1.46-.116-.412-.368-1.407-.812-2.05-.036.415-.57-.285-.278.627.223.323.045-.328.32.246.004.273.108.545.168.9-.094-.016-.21-.393-.278-.288.095.447.252.68.312.715-.031.075-.11-.07-.116.235.037.7.197.405.272.438-.077.345-.385.75-.233 1.344-.043-.18-.128-.36-.193-.531-.06.506.111.605-.122 1.219.168-.554.15-1.053-.009-.812.07.786-.622 1.39-.547 1.887l-.201-.277c-.546.79-.013.435-.385 1.034.137-.235-.07-.097.106-.364-.117.007-.525.501-.897.791-1.465 1.175-3.214 1.328-4.908.696l-.003.005c.01-.041 0-.085-.118-.164-1.435-1.1-2.284-2.036-1.99-4.2.22-.166.278-1.068.78-1.384.306-.677 1.224-1.3 2.204-1.316 1.001-.055 1.846.534 2.27 1.09-.772-.72-2.037-.939-3.115-.405-1.103.496-1.756 1.71-1.661 2.92.04-.06.077-.023.097-.172-.034 2.35 2.532 4.072 4.38 3.203l.022.049c.749-.205.652-.373 1.142-.71-.038.08-.33.28-.156.285.238-.064.982-.756 1.348-1.082.168-.362-.088-.195.146-.65l.286-.144c.16-.46.336-.72.316-1.256l-.168.353c.246-.745.105-1.556.14-2.257l-.07-.019c-.06-1.764-1.584-3.638-2.941-4.273-1.17-.54-2.97-.633-3.802-.226.114-.101.57-.144.433-.222-1.302.13-1.012.454-2.01.71-.274.264.8-.212.222.13-.536.148-.786-.093-1.579.728.07.114.504-.338.143.116-.746-.092-2.357 1.706-2.699 2.303l.18.03c-.295.736-.68 1.205-.733 1.646-.076 1.083-.454 3.059.071 3.666l-.05.507c.072.144.126.29.215.426l-.116.01c.552 1.742.593.032 1.323 1.842-.106-.035-.213-.074-.367-.282-.018.159.225.635.514 1.006l-.123.14c.161.292.31.357.42.459-.6-.328.558 1.08.662 1.259l.093-.164c-.013.236.169.541.512.964l.286-.011c.117.232.547.652.808.672l-.173.227c.655.207.318.275 1.123.56l-.162-.287c.41.356.537.668 1.117.94.803.28.91.17 1.735.406-.7-.02-1.521-.013-2.074-.21-3.77-1.022-7.22-5.445-6.968-10-.058-.923.092-2.076-.062-2.306.216-.702.465-1.558.968-2.576-.036-.068.082.2.337-.236.155-.34.282-.715.477-1.046l.1-.023c.101-.583 1.362-1.478 1.737-1.929l.026.172c.82-.768 2.279-1.283 3.1-1.65-.215.24.484-.023.988-.053"/>
    <path fill="#a80030" d="M8.403 11.366c.175.039.776.975 1.225 1.128-.265-.213-.471-.484-.662-.763.36.413.796.75 1.273.973-.013-.05.008-.083.02-.116-.004.08.33.337.58.466.646.239 1.375.248 1.95.227-1.242.519-3.61-.527-4.386-1.915"/>
    <path fill="#a80030" d="M10.259 12.588q0-.006.004-.011zm-2.274-1.566c.274.527.422.689.622 1.08-.278-.232-.45-.552-.668-.848zm.255-.455c.077.153.145.307.26.434l.102.3c-.14-.234-.289-.465-.362-.734m9.37-1.546a5.8 5.8 0 0 1-.625 1.965 5.9 5.9 0 0 0 .578-1.843zm-5.188 1.503a4 4 0 0 1-.324.28c-.433-.067-.827-.233-.495-.238.276.026.55.024.82-.042m1.35-1.28a2.1 2.1 0 0 1-.392.879c.024-.234-.55.101.116-.737-.058.236-.62.858 0 .468.112-.2.232-.39.276-.61m.094-1.01c.053-.227.21-.416.17.181-.06.24-.108-.149-.17-.18M2.177 5.8c-.04.184-.058.376-.162.694.03-.25-.124-.328.162-.694m.368-1.518c-.003.198.332-.196.09.348-.45.315-.039.13-.09-.348M10.69.372l-.116.01.125-.026zm-.344-.114c.59.017.547.056.353.098.029-.042-.176-.066-.353-.098M11.2 0c-.238.054-.565.017-.789.1l-.134-.02c.305-.039.613-.054.923-.08"/>
</svg>
